assets/icons/uE046-textchat.svg

<svg xmlns="http://www.w3.org/2000/svg" width="896" height="1232" viewBox="0 0 896 1232"><path d="M583 56q132 0 222.5 91.5T896 373v68q0 130-93 222.5T579 756h-37L377 934q-17 18-41 18-12 0-21-4-16-6-25.5-20.5T280 896V754Q161 740 80.5 650.5T0 441v-68q0-131 93-224t224-93h266zm257 385v-68q0-109-74.5-185T583 112H317q-108 0-184.5 76.5T56 373v68q0 108 76.5 183.5T317 700h19v196l182-196h61q108 0 184.5-75.5T840 441zm-98-35q0-14-14-14H168q-14 0-14 14t14 14h560q14 0 14-14zm-84-112q0-14-14-14H252q-14 0-14 14t14 14h392q14 0 14-14zm0 224q0-14-14-14H252q-14 0-14 14t14 14h392q14 0 14-14z"/></svg>

<?xml version="1.0" encoding="UTF-8" standalone="no"?><svg   xmlns:svg="http://www.w3.org/2000/svg"   xmlns="http://www.w3.org/2000/svg"   version="1.1"   width="896"   height="1232"   viewBox="0 0 896 1232">  <path     d="M583 56Q715 56 805.5 147.5T896 373V441Q896 571 803 663.5T579 756H542L377 934Q360 952 336 952Q324 952 315 948Q299 942 289.5 927.5T280 896V754Q161 740 80.5 650.5T0 441V373Q0 242 93 149T317 56H583zM840 441V373Q840 264 765.5 188T583 112H317Q209 112 132.5 188.5T56 373V441Q56 549 132.5 624.5T317 700H336V896L518 700H579Q687 700 763.5 624.5T840 441zM742 406Q742 392 728 392H168Q154 392 154 406T168 420H728Q742 420 742 406zM658 294Q658 280 644 280H252Q238 280 238 294T252 308H644Q658 308 658 294zM658 518Q658 504 644 504H252Q238 504 238 518T252 532H644Q658 532 658 518z"     id="icon113" /></svg>
